X: 1
T: M\"ockelmyrvalsen
C: av Olof Tillman (Dala Floda)
M: 3/4
L: 1/8
Z: 1998 by John Chambers <jc@trillian.mit.edu>
K: D
|: FE \
| "D"D2 F2A2 | d2 f3 e | "G"d2 G2 B2 | "D"A3 B A2 \
|1,3 "A7"A,2 C2 E2 | A2 c3 B | A2 E2 G2 | "D"F4 \
:|2,4 "A7"AB cd ef | g2 B2 c2 | "D"d3 edc | d4 :| [K:A]
|: cd \
| "A"e3 fed | c2 e2 a2 | c'2 a2 f2 | e4 Bc \
|1,3 "E7"d2 B3 B | B3 cde | f2 e2 d2 | "A"c4 \
:|2,4 "E7"d2 B3 c | d2 BG BG | "A"A3 BAG | A4 :| [K:D]
|: FE \
| "D"D2 F2A2 | d2 f3 e | "G"d2 G2 B2 | "D"A3 B A2 \
|1,3 "A7"A,2 C2 E2 | A2 c3 B | A2 E2 G2 | "D"F4 \
:|2,4 "A7"AB cd ef | g2 B2 c2 | "D"d3 edc | d4 ||
|: dc \
| "G"B2 gg g2 | gb ag fe | "D"d2 ff f2 | fa gf ed \
| "A7"c2 e2 a2  | ab ag ec |1,3 "D"d2 de fg | a4 :|2,4 "D"d3 edc | d4 :|
